svg/development/code_fill.svg

<?xml version="1.0" encoding="UTF-8"?>
<svg width="24px" height="24px" viewBox="0 0 24 24" version="1.1" xmlns="http://www.w3.org/2000/svg" xmlns:xlink="http://www.w3.org/1999/xlink">
    <title>code_fill</title>
    <g id="Icon" stroke="none" stroke-width="1" fill="none" fill-rule="evenodd">
        <g id="Development" transform="translate(0.000000, -48.000000)" fill-rule="nonzero">
            <g id="code_fill" transform="translate(0.000000, 48.000000)">
                <rect id="矩形" x="0" y="0" width="24" height="24"></rect>
                <path d="M14.6209,2.66215 C15.4185,2.88601 15.8836,3.71408 15.6597,4.51169 L11.2287,20.299 C11.0048,21.0966 10.1767,21.5617 9.37914,21.3378 C8.58153,21.114 8.11642,20.2859 8.34029,19.4883 L12.7714,3.70099 C12.9952,2.90339 13.8233,2.43828 14.6209,2.66215 Z M7.56063,6.69658 C8.14641,7.28237 8.14641,8.23212 7.56063,8.8179 L4.37864,11.9999 L7.56063,15.1819 C8.14641,15.7677 8.14641,16.7174 7.56063,17.3032 C6.97484,17.889 6.02509,17.889 5.4393,17.3032 L1.19666,13.0605 C0.915359,12.7792 0.757324,12.3977 0.757324,11.9999 C0.757324,11.6021 0.915359,11.2205 1.19666,10.9392 L5.4393,6.69658 C6.02509,6.1108 6.97484,6.1108 7.56063,6.69658 Z M16.4393,8.8179 C15.8535,8.23212 15.8535,7.28237 16.4393,6.69658 C17.0251,6.1108 17.9748,6.1108 18.5606,6.69658 L22.8033,10.9392 C23.0846,11.2205 23.2426,11.6021 23.2426,11.9999 C23.2426,12.3977 23.0846,12.7792 22.8033,13.0605 L18.5606,17.3032 C17.9748,17.889 17.0251,17.889 16.4393,17.3032 C15.8535,16.7174 15.8535,15.7677 16.4393,15.1819 L19.6213,11.9999 L16.4393,8.8179 Z" id="形状" fill="#09244B"></path>
            </g>
        </g>
    </g>
</svg>

<svg xmlns="http://www.w3.org/2000/svg" width="24" height="24"><g fill="none" fill-rule="nonzero"><path d="M0 0h24v24H0z"/><path fill="#09244B" d="M14.62 2.662a1.5 1.5 0 0 1 1.04 1.85l-4.431 15.787a1.5 1.5 0 0 1-2.889-.81L12.771 3.7a1.5 1.5 0 0 1 1.85-1.039ZM7.56 6.697a1.5 1.5 0 0 1 0 2.12L4.38 12l3.182 3.182a1.5 1.5 0 1 1-2.122 2.121L1.197 13.06a1.5 1.5 0 0 1 0-2.12l4.242-4.243a1.5 1.5 0 0 1 2.122 0Zm8.88 2.12a1.5 1.5 0 1 1 2.12-2.12l4.243 4.242a1.5 1.5 0 0 1 0 2.121l-4.242 4.243a1.5 1.5 0 1 1-2.122-2.121L19.621 12 16.44 8.818Z"/></g></svg>
